X:1
T:Where Is My Soul Tonight?
T:Where Is My Soul Tonight?
T:William James Kirkpatrick
T:Frances Jane (Fanny) Crosby, 1885
T:Public Domain Courtesy of the Cyber Hymnal™
C:William James Kirkpatrick
Z:Public Domain
Z:Courtesy of the Cyber Hymnal™
%%score 1 ( 2 3 )
L:1/8
Q:1/4=90
M:6/8
K:D
V:1 treble 
V:2 bass 
V:3 bass 
V:1
 [DF][DF][EG] [FA]2 [FA] | [GB]2 [GB] [FA]2 [FA] | [Fd]>[Fd][Fd] [Fd]2 [Fd] | [Fc]3- [Fc]2 [Ec] | %4
w: 1.~Oft have I heard a|voice that said, In|tones that were soft and|low, * “Thy|
w: 2.~Oft have I heard a|warn- ing voice That|urged me to fly from|sin; * To|
w: 3.~Oft have I heard a|ten- der voice, When|trou- bled and care- op-|pressed; * And|
w: 4.~Oft have I heard a|grieved, sad voice, En-|treat- ing me o’er and|o’er; * And|
 [DB]>[DB][DB] [Dd]2 [GB] | [GB]2 [FA] [FA]2 [FA] | [EG][^DF][EG] [FA]2 [EG] | [DF]3- [DF]2 || %8
w: Sav- ior has loved, and|loves thee yet; Then|why wilt thou slight Him|so?” *|
w: o- pen the door I|long have closed, And|wel- come the Sav- ior|in. *|
w: then like a wea- ry|child I sighed In|Je- sus to find a|rest. *|
w: if I re- fuse to|hear it now, Per-|haps it will come no|more. *|
"^Refrain" [FA] | [Fd]>[Fd][Fd] [Fc]2 z | [DB]>[GB][GB] [FA]2 z | [EA][E^G][EA] [Ec]2 [DB] | %12
w: ||||
w: But|where is my soul,|where is my soul,|Where is my soul to-|
w: 4th~Verse:~O|Sav- ior, I yield,|Sav- ior, I yield,|Take Thou my soul to-|
w: ||||
 [CA]3- [CA]2 [EG] | [DF]2 [EG] [FA]2 [FA] | [A=c]>[Ac][GB] [FA]2 [Fd] | [Gd]>[Gd][Gd] [Fd]2 [Ec] | %16
w: ||||
w: night? * That|voice pleads on, pleads|pa- tient- ly on, But|where is my soul to-|
w: night. * I|now be- lieve, and|glad- ly re- ceive Thy|mes- sage of grace to-|
w: ||||
 [Fd]3- [Fd]2 |] %17
w: |
w: night? *|
w: night. *|
w: |
V:2
 [D,A,][D,A,][D,A,] [D,D]2 [D,D] | [G,D]2 [G,D] [D,D]2 [D,D] | %2
 [D,A,]>[D,A,][D,A,] [B,,B,]2 [B,,B,] | [F,^A,]3- [F,A,]2 [F,A,] | %4
 [G,B,]>[G,B,][G,B,] [G,B,]2 [G,D] | [D,D]2 [D,D] [D,D]2 [D,A,] | %6
 [A,,A,][A,,A,][A,,A,] [A,,A,]2 [A,,A,] | [D,A,]3- [D,A,]2 || [D,A,] | %9
 [B,,B,]>[B,,B,][B,,B,] [F,,F,^A,]2 z | [G,B,]>[G,D][G,D] [D,D]2 z | %11
 [E,C][E,B,][E,C] [E,A,]2 [E,^G,] | [A,,A,]3- [A,,A,]2 [A,,B,] | [D,A,]2 [D,A,] [D,D]2 [D,D] | %14
 [D,D]>[D,D][D,D] [D,D]2 [D,=C] | [G,B,]>[G,B,][G,_B,] A,2 [A,,A,] | [D,A,]3- [D,A,]2 |] %17
V:3
 x6 | x6 | x6 | x6 | x6 | x6 | x6 | x5 || x | x6 | x6 | x6 | x6 | x6 | x6 | x3 A,2 x | x5 |] %17

